static/assets/images/icons/previous.svg

<svg width="256" height="256" viewBox="0 0 256 256" fill="none" xmlns="http://www.w3.org/2000/svg">
<path fill-rule="evenodd" clip-rule="evenodd" d="M195.644 64.0109C197.418 62.8142 199.482 62.1244 201.616 62.0153C203.75 61.9062 205.874 62.382 207.759 63.3917C209.645 64.4013 211.222 65.907 212.321 67.7474C213.42 69.5879 214.001 71.6939 214 73.8401V182.737C214 184.89 213.416 187.002 212.31 188.846C211.204 190.69 209.618 192.196 207.723 193.203C205.828 194.209 203.696 194.677 201.556 194.556C199.416 194.436 197.349 193.732 195.578 192.519L137.697 152.898V182.737C137.698 184.89 137.113 187.002 136.007 188.846C134.901 190.69 133.315 192.196 131.42 193.203C129.526 194.209 127.393 194.677 125.253 194.556C123.113 194.436 121.047 193.732 119.275 192.519L39.1391 137.663C37.5489 136.573 36.249 135.107 35.3531 133.395C34.4572 131.683 33.9926 129.777 34.0001 127.842C34.0075 125.908 34.4867 124.006 35.3958 122.3C36.3048 120.595 37.616 119.14 39.2146 118.062L119.341 64.0109C121.115 62.8142 123.18 62.1244 125.314 62.0153C127.448 61.9062 129.571 62.382 131.457 63.3917C133.342 64.4013 134.919 65.907 136.018 67.7474C137.118 69.5879 137.698 71.6939 137.697 73.8401V103.1L195.644 64.0109Z" fill="black"/>
</svg>

<svg xmlns="http://www.w3.org/2000/svg" fill="none" viewBox="0 0 256 256"><path fill="#000" fill-rule="evenodd" d="M195.644 64.01a11.74 11.74 0 0 1 12.115-.62 11.8 11.8 0 0 1 4.562 4.357A11.9 11.9 0 0 1 214 73.84v108.897c0 2.153-.584 4.265-1.69 6.109a11.8 11.8 0 0 1-4.587 4.357 11.74 11.74 0 0 1-12.145-.684l-57.881-39.621v29.839a11.87 11.87 0 0 1-1.69 6.109 11.8 11.8 0 0 1-4.587 4.357 11.74 11.74 0 0 1-12.145-.684l-80.136-54.856a11.8 11.8 0 0 1-3.786-4.268 11.88 11.88 0 0 1 .043-11.095 11.8 11.8 0 0 1 3.819-4.238l80.126-54.051a11.74 11.74 0 0 1 12.116-.62 11.8 11.8 0 0 1 4.561 4.356c1.1 1.84 1.68 3.947 1.679 6.093v29.26z" clip-rule="evenodd"/></svg>
